!!!SOCIAL_FUNCTION:	songs connected with expeditions to obtain salt
!!!PDT:	1929
!!!OTL: No_122_We_Will_Run_Around_the_Salt_Bed.krn
!!!REG: Southwest
!!!LANG: Non-Tone
!!!LING_GROUP: Uto-Aztecan
**kern
*staff1
=
*clefF4
*k[b-e-a-]
*M2/4
8.c\L
16B-\Jk
=1
4.c\
8B-\
=2
4G\
8.c\L
16B-\Jk
=3
4.c\
8B-\
=4
8G\L
[8F\J
4F;\]
=5
8E-/L
8C/J
4E-\
=6
8C/L
16C/L
16C/JJ
8C/
8r
=7
4E-\
16F\LL
16E-\J
8F\J
=8
4F\
8.E-/L
16C/Jk
=9
8F\L
8E-\J
8.E-;/L
32C/LL
32C/JJJ
=10
8.e-\L
16e-\Jk
4e-\
=11
4r
4r
*-
